X: 15841
T: Gortavale Rock
R: reel
M: 4/4
K: Aminor
a2 ga faef|decd _BdAB|GAFG EF D2-|DEFD EFED|
|:G,A,A,A, CA,DA,|DEDE GE A2-|AcBG AGED|DE E/E/E DCA,G,|
G,A, A,/A,/A, CA,DA,|DEDE GE A2-|AcBG AGED|1 E^F G/F/E AGED:|2 E^F G/F/E AGEC||
|:D3 D EDCD|A,/B,/C DE FGAc|dfec d2 Ac|BG A2 EFEC|
D3 D EDCD|A,/B,/C DE FGAc|dfec d2 Ac|1 BG A2 EFEC:|2 BG A2 A2 B2||
Bc c/c/c gccg|ccgc cage|Bc c/c/c ccgc|cgcc a2 g2|
gccg ccgc|cgcc gc c/c/c|ga a/a/a aged|cAGc AGEG|
Bc c/c/c accc|gccc efff|eccc accg|cc c/c/c ccef|
eccc accg|ccgc cgcc|a2 ga faef|decd _BdAB|GAFG EF D2-|DEFD EFED||

